X: 1
T:Le Funambule
R:Bourree
M: 4/4
L: 1/8
Q:1/4=120
C:Neil Brook
Z:Neil Brook -> NoteWorthy Composer -> MIDI -> midi2abc -> Dave Holland
K:Dm
A2 GA2d ^cA| B3/2A/2 G_E2F GB| \
A2 GA2d ^cA| =c3/2=B/2 G_B AF GF:|\
|:d3/2e/2 fA2A BA|
d3/2e/2 fB2^c de| \
f3/2e/2 d^c dA BG|1 FG/2F/2 E2 FG/2F/2 ED:|2 FG/2F/2 EF/E/ D2 D2 |]
<end>
<start>
